X:34
T:Scotch Set Of Quadrilles No.3. Le4.034
B:L.Leadley MS#4 c1850
Z:Village Music Project, 2016 Steve Mansfield
M:6/8
L:1/8
N:* Capital letter B in Mss between the key signature & first note
N:** This bar G2 F2 f in Mss
Q:3/8=100
K:Bb
"^B""*"f | f2f d2d | B2B F2F | GAB BAG | "**"G2F F2f |
f2d d2B | B2F F2f | gabf2=e | fff f3 ||
ede cde | dfe dcB | ede cde | ddd def |
g2E E2g | fga b2g | f>gf edc | BBB B3 ||
b2b fga | bfd Bdf | g2f e2d | ccc c2z |
B3 g_ec | Acf f2c | c>dc BAG | FFF F3 ||
F3 E3 | D2d def | E3 D3 | C2c cde |
f2D E2g | a>ga b2g | fgf edc | BBB B3 |]
%% Quadrille No.4 omitted in Mss

